packages/tokens/icons/wallet/size24Px.svg

<svg viewBox="0 0 24 24" fill="none" xmlns="http://www.w3.org/2000/svg" width="1em" height="1em"><path d="M20.5 7.5V6.5C20.5 5.39543 19.6046 4.5 18.5 4.5L4.5 4.5C3.39543 4.5 2.5 5.39543 2.5 6.5L2.5 17.5C2.5 18.6046 3.39543 19.5 4.5 19.5H18.5C19.6046 19.5 20.5 18.6046 20.5 17.5V16.0526" stroke="currentColor" stroke-linecap="round"/><path d="M15.4999 12C15.4999 11.1716 16.1715 10.5 16.9999 10.5H21.3636C21.4389 10.5 21.4999 10.561 21.4999 10.6364L21.5 13.3636C21.5 13.4389 21.4389 13.5 21.3636 13.5H16.9999C16.1715 13.5 15.4999 12.8284 15.4999 12Z" stroke="currentColor"/></svg>

<svg xmlns="http://www.w3.org/2000/svg" fill="none" viewBox="0 0 24 24" width="1em" height="1em"><path stroke="currentColor" stroke-linecap="round" d="M20.5 7.5v-1a2 2 0 0 0-2-2h-14a2 2 0 0 0-2 2v11a2 2 0 0 0 2 2h14a2 2 0 0 0 2-2v-1.447"/><path stroke="currentColor" d="M15.5 12a1.5 1.5 0 0 1 1.5-1.5h4.364c.075 0 .136.061.136.136v2.728a.136.136 0 0 1-.136.136H17a1.5 1.5 0 0 1-1.5-1.5Z"/></svg>
